X:5
T:Biddy Martin's
Z: id:dc-polka-4
M:2/4
L:1/8
K:D Major
f/e/d Be|ef ed|f/e/d Be|eA d2|!
f/e/d Be|ef ed|f/e/d Be|eA d2:|!
f/a/f ef|af ed|f/a/f ef|af e2|!
f/a/f ef|af ed|f/e/d Be|eA d2:|!